X: 11680
T: Eileen's Request
R: slip jig
M: 9/8
K: Dmajor
a|d'c'd' afa d'2a|bc'd' afa bge|fed dfa d'2a|bc'd' afd' af:|
e|fef dBA d2e|fed fga bag|fdd edc d2a|bc'd' afd' afd|
fef dBA d2e|fed fga bag|fga ac'e' d'2a|bc'd' afd' afd||

